X:1
T:07 - Apollo s'ancor vive
T:Luca Marenzio (1556 - 1599) 1º Libro di Madrigali a quattro voci (Venetia, 1592)
T:Francesco Petrarca
T:07 - Apollo s'ancor vive
T:© 2018 Ed. Marcos Mato
T:© 2018 Ed. Marcos Mato
T:© 2018 Ed. Marcos Mato
T:© 2018 Ed. Marcos Mato
T:© 2018 Ed. Marcos Mato
T:© 2018 Ed. Marcos Mato
T:© 2018 Ed. Marcos Mato
C:Luca Marenzio (1556 - 1599)
C:1º Libro di Madrigali a quattro voci (Venetia, 1592)
Z:Francesco Petrarca
Z:© 2018 Ed. Marcos Mato
%%score [ 1 2 3 4 ]
L:1/8
M:4/4
K:C
V:1 treble nm="Soprano" snm="Sop."
V:2 alto2 nm="Alto" snm="A."
V:3 alto transpose=-12 nm="Tenor" snm="T."
V:4 tenor nm="Basso" snm="Bajo"
V:1
 c4 | [Cg]2 |[M:4/2]"^Prima parte" c8 g8 | e8 z2 d4 d2 | edef g2 g2 f2 f2 e4 | d8 z2 G4 G2 | %6
w: ||A- pol-|lo, s'an- cor|vi- * * * * ve\_il bel de- si-|o, s'an- cor|
 AGAB c2 c2 B2 B2 A3 B | c2 BA BcdB"^#" ^c2 d4 c2 | d8 z2 G2 B3 =c | d4 c2 c2 G3 A B4 | %10
w: vi- * * * * ve\_il bel de- si- *||o che t'in- fiam-|ma- va, que t'in- fiam- ma-|
 c4 z2 B2 c3 d e4 | f2 c2 e3 f g4 d4 | d4 c2 c4 B2 e4- | e2 dc B2 c2 d2 cB A2 B2 | ^c2 d4 c2 d8 | %15
w: va, che t'in- fiam- ma-|va, che t'in- fiam- ma- va,|le the- sa- li- che|_ on- * * * * * * * *|* * * de,|
 z4 d6 =c4 B2 | c4 z4 z8 | z4 g6 f4 e2 | f2 d2 e2 c2 d2 cB c2 B2 | B2 AG A4 G8 | z8 B2 c4 B2 | %21
w: e se non|hai,|e se non|hai l'a- ma- te chio- * * * me|bion- * * * de,|vol- gen- do|
 e8 d8 | B4 d8 c2 B2 | A8 B8 | z4 c8 A4- | A4 A4 ^G8 |"^#" ^G8 z2 A4 B2 | c8 A6 =G2 | F8 G4 A4- | %29
w: gl'an- ni,|già poss' in o-|bli- o:|dal pi-|* gro gie-|lo e dal|temp' _ _|as- pro\_e ri-|
 A4 G4 A4 A4 | B4 B4 z2 d3 d d2 | B4 G2 d2 BcdB e2 d2 | z2 G2 EFGE ^F2 G4 F2 | G4 z2 d2 e6 d2 | %34
w: * * o, che|du- ra quant' il tuo|vi- so s'as- con- * * * * de,|s'as- con- * * * * * *|de, di- fen- di\_hor|
 c3 c c2 B2 A2 G2 ^F4 |"^#" ^F2 A2 A2 A2 B4 B4 | e4 z2 c2 =f4 z2 e2 | g8 c2 c2 e3 d/c/ | %38
w: l'ho- no- ra- ta\_e sa- cra fron-|de, o- ve tu pri- ma,\_e|poi, e poi, e|poi fu'\_in- ves- ca- * *|
 B3 c d3 c/B/ A3 B c3 B/A/ | G3 A B3 c d8 | A8 B8 ||"^Seconda parte" z16 | z4 G4 c4 B4 | %43
w: ||t'i- o.||E per vir-|
 c4 z4 z4 g4 | e4 d4 e4 z4 | z4 c4 A2 B2 c2 c2 | B2 c4 B2 c8 | z8 z4 e4 | d4 f4 e2 dc B2 c2 | %49
w: tú, e|per vir- tú|de l'a- mo- ro- sa|spe- * * me,|che|ti sos- ten- * * * *|
 d2 cB A2 B2 c2 B2 B4- | B2 A2 A8 ^G4 | z4 e8 d4 | c4 B4 c8- | c8 B2 d2 e3 d | %54
w: |* * * ne|ne la|vi- ta\_a- cer-|* ba, di quest' im-|
 c2 B2 A2 d3 d ^c2 d4 | d8 G8 | G4 A4 B8 | z8 z4 d4 | B4 c4 d4 z4 | z2 g2 cBcd e2 e2 z4 | %60
w: pres- si- on l'ae- re dis- gom-|bra; si|ve- drem poi,|si|ve- drem poi|per me- ra- vi- glia\_in- sie- me|
 z4 c4 c8 | c4 B8 B4 | A8 A2 _B4 A2 | F4 G4 A4 z2 c2- | c2 e4 d4 c4 B2- | B2 A4 G4 F2 E4 | %66
w: se- der|la don- na|nos- tra so- pra|l'her- * ba, e|_ far de le sue|_ brac- cia\_a se stess'|
 D8 C4 z2 c2- | c2 e4 d4 c4 B2- | B2 A4 G4 F2 E4 | D8 E8 |] %70
w: om- bra, e|_ far de le sue|_ brac- cia\_ai se stess'|om- bra.|
V:2
 G4 | [G,c]2 |[M:4/2] z8 G8 | c8 B8 | z2 G4 G2 AGAB c2 c2 | B2 B2 A4 G3 A B4 | %6
w: ||A-|pol- lo,|s'an- cor vi- * * * * ve\_il|bel de- si- * * o,|
 z2 A2 G2 G2 ^F2 G4 F2 | G8 z8 | z2 F2 A3 B c2 C2 z2 D2- | D2 B,2 CB,CD E2 E2 D2 G,2 | %10
w: il bel de- si- * *|o|che t'in- fiam- ma- va, s'an-|* cor vi- * * * * ve\_il bel de-|
 C4 D4 z4 z2 G2 | A3 B c4 B8 | A2 A,2 CDEF G6 c2 | B6 AG A2 G2 F2 ED | A8 A8 | z4 G4 E4 D4 | %16
w: si- o che|t'in- fiam- ma- va|le the- sa- * * * * li-|che on- * * * * * *|* de|e se non|
 C4 z4 z4 G4- | G2 F4 E2 F3 G A4 | z2 D2 G2 E2 F2 ED C2 D2 | E4 D4 B,2 C4 B,2 | E8 D8 | z4 G8 B4- | %22
w: hai, e|_ se non hai _ _|l'a- ma- te chio- * * * me|bion- de, vol- gen- do|gl'an- ni,|già post'|
 B4 A8 G4- | G4 ^F4 G8 | z4 G8 =F4- | F4 E4 E8 | E8 z2 E4 G2 | G4 A6 G2 F2 E2 | D12 E4 | %29
w: _ in o-|* bli- o:|dal pi-|* gro gie-|lo e dal|tem- p'as- * * *|* pro\_e|
 F4 E2 D2 E4 E4 | G4 G4 z2 B3 B B2 | G8 D4 G4 | CDEF GABG A8 | B4 z2 B2 c6 B2 | %34
w: ri- * * o, che|du- ra quant' il tuo|vi- so s'as-|con- * * * * * * * *|de, di- fen- di\_hor|
 A3 A A2 G2 F2 D2 D4 | D2 ^F2 F2 F2 G4 G4 | z2 E2 A4 z2 A2 c4 | z2 G2 E4 E4 E2 G2- | %38
w: l'ho- no- ra- ta\_e sa- cra fron-|de, o- ve tu pri- ma,|e poi, e poi,|e poi fu'\_in- ves- ca-|
 GF/E/ D3 E F3 E/D/ C3 D E2- | EF G3 F/E/ DE F3 G A2 G2- | G2 ^FE F4 G8 || z16 | G8 E4 D4 | %43
w: |* * * * * * * * * * t'i-|* * * * o.||E per ver-|
 C8 z4 G4 | c4 B4 c4 z2 G2 | E2 F2 G2 G2 F4 E3 F | G16 | z8 z4 c4 | B4 A4 c2 BA G2 A2 | %49
w: tù, e|per ver- tù de|l'a- mo- ro- sa spe- * *|me,|che|ti sos- ten- * * * *|
 B2 AG A4 G4 z2 E2 | F4 D4 E8 | E4 A4 G4 G4 | C4 G8 F2 E2 | ^F8 G2 B2 c3 B | A2 G2 ^F2 A3 A G2 A4 | %55
w: * * * * ne, che|ti sos- ten-|ne ne la vi-|ta\_a- cer- * *|* ba, di quest' im-|pres- si- on l'ae- re dis- gom-|
 B8 z4 G4 | E4 F4 G8 | z8 G8 | G4 A4 B4 z4 | z2 G2 AGAB c2 c2 z4 | z4 A4 A8 | A4 G8 G4 | %62
w: bra; si|ve- drem poi,|si|ve- drem poi|per me- ra- vi- glia\_in- sie- me|se- der|la don- na|
 ^F8 F2 G4 C2 | D8 C4 z2 E2- | E2 c4 B2 A4 G4 | F4 E4 A4 G4 | G8 E4 z2 E2- | E2 c4 B2 A4 G4 | %68
w: nos- tra so- pra|l'her- ba, e|_ far de le sue|brac- cia\_a se stess'|om- bra, e|_ far de le sue|
 F4 E4 A4 G4 | G8 G8 |] %70
w: brac- cia\_a se stess'|om- bra.|
V:3
 C4 | [G,A]2 |[M:4/2] z16 | C8 G8 | E8 z2 C4 C2 | DCDE F2 F2 E2 E2 D4- | D4 G,4 z2 D4 D2 | %7
w: |||A- pol-|lo, s'an- cor|vi- * * * * ne\_il bel de- si-|* o, s'an- cor|
 EDEF G2 G2 F2 F2 E4 | F4 z2 D2 E3 F G4- | G4 E4 z4 z2 D2 | E3 F G4 E8 | z2 C4 E3 F G4 D2- | %12
w: vi- * * * * ve\_il bel de- si-|o che t'in- fiam- ma-|* va, che|t'in- fiam- ma- va,|che t'in- fiam- ma- va|
 D2 F2 F2 E4 D2 G4- | G2 FE D2 E2 F2 G2 A2 GF | E2 D2 E4 D4 F4 | E4 D4 G4 z2 G2 | %16
w: _ le the- sa- li- che|_ on- * * * * * * * *|* * * de, e|se non hai l'a-|
 E2 F2 E2 DC D2 C2 C2 B,A, | B,4 C4 z2 D4 C2- | C2 B,2 C4 z2 G2 A2 F2 | G2 FE F2 F2 E2 DC D4 | %20
w: ma- te chio- * * * me bion- * *|* de, e se|_ non hai l'a- ma- te|chio- * * * me bion- * * *|
 C4 G4 G4 G4 | C8 G4 G,4- | G,4 A,4 B,4 C4 | D8 D8 | z4 E8 C4- | C4 C4 B,8 | B,8 z2 C4 D2 | %27
w: de, vol- gen- do|gl'an- ni, già|_ post' in o-|bli- o:|dal pi-|* gro gie-|lo e dal|
 E8 F8- | F4 E4 D8- | D8 ^C4 C4 | D8 B,4 z2 D2- | DD D2 B,4 G,2 D2 B,CDB, | E8 D8 | z4 G4 G6 G2 | %34
w: temp' as-|* pro\_e ri-|* o che|du- ra quant'|_ il tuo vi- so s'as- con- * * *|* de|di- fen- di\_hor|
 E3 E E2 E2 C2 B,2 A,4 | A,4 z2 D2 D2 D2 E4 | C4 z2 E2 D4 z2 G2 | E3 F G4 A2 A2 G3 F/E/ | %38
w: l'ho- no- ra- ta\_e sa- cra fron-|de, o- ve tu pri-|ma, e poi, e|poi _ _ fu' in- ves- * *|
 D3 E F3 E/D/ C3 D E3 D/C/ | B,8 A,6 B,C | D8 D8 || G8 E4 D4 | E8 z4 G4 | E2 F2 G2 G2 F4 E4 | %44
w: |ca- t'i- * *|* o.|E per ver-|tù de|l'a- mo- ro- sa spe- me,|
 z4 G4 E4 D4 | G4 E4 D2 D2 C3 D | E2 DC D4 C4 E4 | D4 F4 E4 E4 | z8 z4 E4 | D4 F4 E2 DC B,2 C2 | %50
w: e per ver-|tù de l'a- mo- ro- sa|spe- * * * me, che|ti sos- ten- ne,|che|ti sos- ten- * * * *|
 D2 CB, A,2 B,2 C2 B,A, B,4 | A,8 C4 D4 | E12 D4 | C8 D2 G2 C3 D | F2 G2 D2 ^F3 F G4 F2 | G8 z8 | %56
w: |ne ne la|vi- ta\_a-|cer- ba, di quest' im-|pres- si- on l'ae- re dis- gom-|bra;|
 z8 G,8 | G,4 A,4 B,8 | z8 z2 G2 CB,CD | E2 E2 z4 z2 G2 CB,CD | E2 E2 F4 F8 | E4 E8 D4 | %62
w: si|ve- drem poi|per me- ra- vi- glia\_in-|sie- me, per me- ra- vi- glia\_in-|sie- me se- der|la don- na|
 D8 D2 D2 E2 F2- | FEDC D4 E4 A4 | G6 G2 E6 E2 | C6 E2 D2 A,2 C4- | C2 B,A, B,4 C8 | %67
w: nos- tra so- pra l'her-|* * * * * ba, e|far de le sue|brac- cia\_a se stess' om-|* * * * bra,|
 z2 G2 G3 G E6 E2 | C6 E2 D2 A,2 C4- | C2 B,A, B,4 C8 |] %70
w: e far de le sue|brac- cia\_a se stess' om-|* * * * bra.|
V:4
 G,4 | [C,E]2 |[M:4/2] z16 | z8 G,8 | C8 A,8 | z2 D,4 D,2 E,D,E,F, G,2 G,2 | F,2 F,2 E,4 D,8 | %7
w: |||A-|pol- lo,|s'an- cor vi- * * * * ve\_il|bel de- si- o,|
 z8 A,8 | D8 C4 z2 G,2- | G,2 G,2 A,G,A,B, C2 C2 B,2 B,2 | A,4 G,2 G,2 A,3 B, C4 | %11
w: A-|pol- lo, s'an-|* cor vi- * * * * ve\_il bel de-|si- o che t'in- fiam- ma-|
 F,4 C,4 E,3 F, G,4 | D,4 A,2 A,2 G,4 E,4 | G,6 F,E, D,2 E,2 F,2 G,2 | A,8 D,4 D4- | %15
w: va, che t'in- fiam- ma-|va le the- sa- li-|che\_on- * * * * * *|* de, e|
 D2 C4 B,2 C4 z2 G,2 | A,2 F,2 G,2 F,E, F,2 F,2 E,2 D,C, | D,4 C,2 C2 _B,4 A,4 | D,4 z4 z8 | %19
w: _ se non hai l'a-|ma- te chio- * * * me bion- * *|* de, e se non|hai,|
 z4 z2 D,2 G,4 G,4 | C,8 G,8 | A,4 C8 B,2 A,2 | G,4 F,2 E,2 D,8- | D,8 G,8 | z4 C8 F,4- | %25
w: vol- gen- do|gl'an- ni,|già post' _ _|_ in o- bli-|* o:|dal pi-|
 F,4 A,4 E,8 | E,8 z2 A,4 G,2 | C8 D8- | D4 C4 _B,8- | B,8 A,4 A,4 | G,16 | G,16 | z16 | %33
w: * gro gie-|lo e dal|temp' as-|* pro\_e ri-|* o, che|du-|ra||
 z4 G,4 C6 G,2 | A,3 A, A,2 E,2 F,2 G,2 D,4 | D,8 G,4 G,2 G,2 | A,4 A,4 z2 D2 C4 | %37
w: di- fen- di\_hor|l'ho- no- ra- ta\_e sa- cra fron-|de, o- ve tu|pri- ma, e poi,|
 z2 C,2 C4 A,4 E,4 | G,3 F,/E,/ D,3 E, F,3 E,/D,/ C,3 D, | E,3 F, G,4 D,8- | D,8 G,8 || %41
w: e poi fu' in-|ves- * * * * * * * * *|* * ca- t'i-|* o.|
 z4 G,4 C4 B,4 | C8 z4 G,4 | C2 D2 E2 E2 D4 C4 | z4 G,4 C4 B,4 | C4 C,4 F,2 G,2 A,2 A,2 | %46
w: E per ver-|tù de|l'a- mo- ro- sa spe- me,|e per ver-|tù de l'a- mo- ro- sa|
 G,8 C,4 C4 | B,4 A,4 C4 C4 | z16 | z8 z4 E,4 | D,4 F,4 E,4 E,4 | C12 B,4 | A,4 G,4 A,8- | %53
w: spe- me, che|ti sos- ten- ne,||che|ti sos- ten- ne|ne la|vi- ta\_a- cer-|
 A,8 G,4 z4 | z4 z2 D3 D E2 D4 | G,8 z8 | z8 z4 G,4 | E,4 F,4 G,8 | z8 z2 G,2 A,G,A,B, | %59
w: * ba,|l'ae- re dis- gom-|bra;|si|ve- drem poi|per me- ra- vi- glia\_in-|
 C2 C2 z4 z2 C2 A,G,A,B, | C2 C2 F,4 F,8 | A,4 E,8 G,4 | D,8 D,2 G,4 A,2 | _B,8 A,4 A,4 | %64
w: sie- me, per me- ra- vi- glia\_in-|sie- me se- der|la don- na|nos- tra so- pra|l'her- ba, e|
 C4 G,4 A,4 E,4 | F,4 C,4 D,4 E,4 | G,4 G,4 z4 A,4 | C4 G,4 A,4 E,4 | F,4 C,4 D,4 E,4 | G,8 C,8 |] %70
w: far de le sue|brac- cia\_a se stess'|om- bra, e|far de le sue|brac- cia\_a se stess'|om- bra.|

